X: 37053
T: Silver Slipper, The
R: slip jig
M: 9/8
K: Dmajor
F2D DDD F2D|DDD F2A d2A|F2D DDD D3|F2A B2G E2G:|
F2A d2c d3|F2A d2A Bcd|F2A d2c d3|B2G E2F GFE|
F2A d2c d3|F2A d2A Bcd|e2c d2A F2A|B2G E2F G2E||

